X: 31658
T: Parnell's March
R: jig
M: 6/8
K: Gmajor
|:d2 c|B2 B B^AB d3 d2 c|B2 B B^AB d3 d2 c|
Bdd d^cd edd d^cd|Add d^cd A2 d ^c2 d|
BGD B^AB d3 dBG|c2 B c2 e g3- gfe|
d2 B GB/c/d c2 A DFG|A2 G G2 F G3:|
|:g2 f|e2 c cGe c3 gfe|d2 B B^Ac B3 G2 B|
dd/d/d d^cd ed/d/d d^cd|Add d^cd A2 d ^c2 d|
BGD BGD d3 dBG|c2 B c2 e g3 gfe|
d2 B GBd c2 A F2 G|A2 G G2 F G3:|

